X:1
T:La Zingarilla
T:La Zingarilla
T:Anonymous Prima edizione 1847 
T:Public Domain - https://imslp.org/wiki/La_Zingarilla_(Anonymous)
T:Public Domain - https://imslp.org/wiki/La_Zingarilla_(Anonymous)
T:Public Domain - https://imslp.org/wiki/La_Zingarilla_(Anonymous)
T:Public Domain - https://imslp.org/wiki/La_Zingarilla_(Anonymous)
C:Anonymous Prima edizione 1847
Z:Public Domain - https://imslp.org/wiki/La_Zingarilla_(Anonymous)
%%score { 1 | ( 2 3 ) }
L:1/8
Q:1/4=144
M:3/4
K:E
V:1 treble nm="ALLEGRO."
V:2 bass 
V:3 bass 
V:1
!mf!"^Allegro" [ee']2 | [dd']2 z2 [ee']2 | [=d=d']2 z2 [ee']2 |!ff! !/-![c'e'g']3 a3 | %4
w: ||||
 [ac'e'a']2 z2 [ee']2 | [dd']2 z2!mf! [ee']2 | [=c=b]2 z2 [ee']2 |!ff! [c'e'g']3 a3 | %8
w: ||||
!mf! [be'g']2 z2 [ee']2 | [dd']2 z2 [ee']2 | [=d=d']2 z2 [ee']2 | [e^a]c[ea]c !>![ac']e | %12
w: ||||
 !>![c'e']=g!>![^ac']g!>![c'e']g | !/-![c'e'=g']3 ^a3 | !/-![c'e'=g']3 ^a3 | %15
w: |||
"_dim." ([e^g]2 [fa]2 [gb]2 | [ac']2 [bd']2 [c'e']2) | ([d'f']2 [c'e']2 [bd']2) | %18
w: |||
 ([ac']2 [gb]2 [fa]2) |!ppp! ([eg]2!mf! [fa]2 [^^f^a]2 | [gb]2 [f=a]2 [eg]2) | %21
w: |||
 [df] z ([B,F]2 [EG]2 | [FA]2 [EG]2 [B,F]2) || z6 | z6 | z2 z2 GA |: (Bc/B/) GBAc | (Bc/B/) GBeg | %28
w: * rall. *|||||||
 B(gf)(AB)f | A(fe)(GBe) | (Bc/B/) GBAc | (Bc/B/) GBeg | [GB]([Bg][Af])([FA][GB])[Af] |1 %33
w: |||||
 [Ge]2 z2 (GA) :|2 [Ge] z z2 gf |:!ff! (3(fgf) db !>!f2 | (3(fgf) ec' !>!^a2 | (ef^ac'e'a) | %38
w: |||||
 (bd'bb^ag) | (3(fgf) db !>!f2 | (3(fgf) ec' !>!^a2 | (ef^ac'e'a) |1 (bc'b^agf) :|2 (bc'b=afd) || %44
w: ||||||
 (Bc/B/) GBAc | (Bc/B/) GBeg | B(gf)(AB)f | A(fe)(GBe) | (Bc/B/) GBAc | (Bc/B/) GBeg | %50
w: ||||||
 [GB]([Bg][Af])([FA][GB])[Af] | [Ge]2 z2 || bc'/d'/ |!ff! [ee']2 [Bb]2 [Gg]2 | [cc']2 [Aa]2 [Ff]2 | %55
w: |||||
 !/-![abd']3 f3 | [egbd'] z z2 z2 | z6 | z2 z2 g2 |: (ga^abeg) | B4 (G>B | F2) (Ad!>!a>d) | %62
w: |||||||
 (e4 Be) | (ga^abeg) | B4 G>B | (FdAf!>!a>d) |1 e2 z2 g2 :|2 e2 !fermata!z2 g2 |: f2 ^AA Tg2 | %69
w: |||||||
 f2 ^AA e2 | d2 Bcde | fg^abc'd' | e'2 ^ac' e2 | g2 fb d2 |1 ^AB=c^c=d^d | e=f^f=g ^g2 :|2 %76
w: |||||||
 f2 ^Af Af | B2 z2 =a2 || (ga^abeg) | B4 (G>B | F2) (Ad!>!a>d) | (e4 Be) | (ga^abeg) | B4 G>B | %84
w: ||||||||
 (FdAf!>!a>d) | e2 z2 || e'3/2f'/4g'/4 | [aa']2 [ee']2 [cc']2 | [ff']2 [=d=d']2 [Bb]2 | %89
w: |||||
 [Gg] z Te'3 f'/g'/ ||[K:A] b' z z2 z2 | z6 | z2 z2 |: cd!pp! (e2 | (c)edB) | (cec'ec'e) | %96
w: |||||||
 (c'2 (b)dbd) | (b2 (a)cac) | (e2 (c)edB) | (cec'ec'e) | (c'2 (b)dbd) | [ca]2 z2 :: (ce) | %103
w: |||||||
 (Bdg)(Bdg) | (cea)(cea) | (f2 (d')fd'f) | (f2 (c')ec'e) | (c'2 (b)dbd) | (b2 (a)cac) | %109
w: ||||||
 (Bdg)(Bdg) |1 a2 z2 :|2 a2 z2 [Gg][Aa] |:!mf! [Bb](c'/b/ g)[Bb][Aa][cc'] | %113
w: |||* più mosso. * * * * *|
 [Bb](c'/b/ g)[Bb][ee'][gg'] |!8va(! [bb']([bg'][af'])([fa][gb])([af'] | %115
w: ||
 [gb])([af'][ge'])(gbe')!8va)! | [Bb](c'/b/ g)[Bb][Aa][cc'] | [Bb](c'/b/ g)[Bb][ee'][gg'] | %118
w: |||
!8va(! [bb']([bg'][af'])([fa][gb])([af'] |1 [ge']) z [egbe']2!8va)! [Gg][Aa] :|2 %120
w: ||
 [Ge] z !fermata!z2 [Ee][Ee] |:O!ff!"^CODA." [Ee]2 [Ee][Ee] [Ee]2 | [Gg]2 [Gg][Gg] [Gg]2 | %123
w: |||
 !>![Bb]2 !>![ee']2 !>![gg']2 | [bd''] z !>![egbe']4 |!p! e'<d' .a.d.f.a | c'<b .f.B.e.f | %127
w: ||||
!p! e'<d' .a.d.f.a |1 e<g b<e' g<b :|2 e2 z |: [ge'][fd'][ec'] | [db][ca][Bg][Af][Ge][Fd] | %132
w: |||||
 ([Af][Ge]) !>![Ge]2 B[eg] | ([eg][df]) !>![df]2 B[fa] | ([fa][eg])[eg][ge'][fd'][ec'] | %135
w: |||
 [db][ca][Bg][Af][Ge][Fd] | ([Af][Ge]) !>![Ge]2 B[eg] | ([eg][df]) !>![df]2 Bb | e2 z :| %139
w: ||||
 z [egbe'][egbe'] |!ff! [egbe']2 [egbe']2 [egbe']2 | [egbe']4 z2 | [egbe']4 z2 | %143
w: ||||
 !fermata![egbe']6 |] %144
w: |
V:2
 [E,E]2 | [D,D]2 z2 [E,E]2 | [=D,=D]2 z2 [E,E]2 |!ff! [A,,,A,,]2 [C,,C,]2 [E,,E,]2 | %4
 [A,,A,]2 z2 [E,E]2 | [D,D]2 z2 [E,E]2 | [=D,=D]2 z2 [E,E]2 |!ff! [E,,E,]2 [G,,G,]2 [B,,B,]2 | %8
 [E,E]2 z2 [E,E]2 | [D,D]2 z2 [E,E]2 | [=D,=D]2 z2 [E,E]2 | %11
 [^A,,C,E,=G,]2 [A,,C,E,G,]2 [A,,C,E,G,]2 | [^A,,C,E,=G,]2 [A,,C,E,G,]2 [A,,C,E,G,]2 | %13
 [^A,,,^A,,]2 [A,,,A,,]2 [C,,C,]2 | [E,,E,]2 [C,,C,]2 [E,,E,]2 | [A,,E,G,]6- | [A,,E,G,]6 | %17
 [A,,C,F,]6- | [A,,C,F,]6 | [B,,E,G,]6- | [B,,E,G,]6 | [B,,D,F,A,]6- | [B,,D,F,A,]6 || %23
 [E,,E,]2 [G,B,E]2 [G,B,E]2 | [E,,E,]2 [G,B,E]2 [G,B,E]2 | [E,,E,]2 [G,B,E]2 [G,B,E]2 |: %26
 [E,,E,]2 [G,B,E]2 [G,B,E]2 | [E,,E,]2 [G,B,E]2 [G,B,E]2 | [B,,,B,,]2 [F,A,B,D]2 [F,A,B,D]2 | %29
 [E,,E,]2 [G,B,E]2 [G,B,E]2 | [E,,E,]2 [G,B,E]2 [F,A,C]2 | [E,,E,]2 [G,B,E]2 [G,B,E]2 | %32
 [B,,,B,,]2 [F,A,B,D]2 [F,A,B,D]2 |1 E, z [E,G,B,E]2 z2 :|2 E, z [E,G,B,E]2 z2 |: [B,,D,F,B,]6 | %36
 !/![C,E,F,^A,]6 | !/![E,^A,C]6 | !/![B,,D,F,B,]6 | !/![B,,D,F,B,]6 | !/![C,E,F,^A,]6 | %41
 !/![E,^A,C]6 |1 !/![B,,D,F,B,]6 :|2 [B,,B,] z z2 z2 || [E,,E,]2 [G,B,E]2 [G,B,E]2 | %45
 [E,,E,]2 [G,B,E]2 [G,B,E]2 | [B,,,B,,]2 [F,A,B,D]2 [F,A,B,D]2 | [E,,E,]2 [G,B,E]2 [G,B,E]2 | %48
 [E,,E,]2 [G,B,E]2 [F,A,C]2 | [E,,E,]2 [G,B,E]2 [G,B,E]2 | [B,,,B,,]2 [F,A,B,D]2 [F,A,B,D]2 | %51
 E, z [E,G,B,E]2 || z2 | [E,E]2 [B,,B,]2 [G,,G,]2 | [C,C]2 [A,,A,]2 [F,,F,]2 | %55
 [D,,D,] z !>![C,C]2 !>![B,,B,]2 | [E,,E,]2 [G,B,E]2 [G,B,E]2 | [E,,E,]2 [G,B,E]2 [G,B,E]2 | %58
 [E,,E,]2 [G,B,E]2 [G,B,E]2 |: [E,,E,]2 [G,B,E]2 [G,B,E]2 | [E,,E,]2 [G,B,E]2 [G,B,E]2 | %61
 [B,,,B,,]2 [F,A,B,D]2 [F,A,B,D]2 | [E,,E,]2 [G,B,E]2 [G,B,E]2 | [E,,E,]2 [G,B,E]2 [G,B,E]2 | %64
 [E,,E,]2 [G,B,E]2 [G,B,E]2 | [B,,,B,,]2 [F,A,B,D]2 [F,A,B,D]2 |1 [E,G,B,E] z [E,G,B,E]2 z2 :|2 %67
 [E,G,B,E] z [E,G,B,E]2 !fermata!z2 |: F,,2 [E,F,^A,C]2 [E,F,A,C]2 | F,,2 [E,F,^A,C]2 [E,F,A,C]2 | %70
 [B,,,B,,]2 [D,F,B,]2 [D,F,B,]2 | [B,,,B,,]2 [D,F,B,]2 [D,F,B,]2 | F,,2 [E,F,^A,C]2 [E,F,A,C]2 | %73
 [B,,,B,,]2 [D,F,B,]2 [D,F,B,]2 |1 F,,2 [E,F,^A,C]2 [E,F,A,C]2 | [F,A,C] z [F,A,C] z [F,A,C] z :|2 %76
 [F,A,C] z [F,A,C] z [F,A,C] z | [B,D] z [B,,D,F,B,] z z2 || [E,,E,]2 [G,B,E]2 [G,B,E]2 | %79
 [E,,E,]2 [G,B,E]2 [G,B,E]2 | [B,,,B,,]2 [F,A,B,D]2 [F,A,B,D]2 | [E,,E,]2 [G,B,E]2 [G,B,E]2 | %82
 [E,,E,]2 [G,B,E]2 [G,B,E]2 | [E,,E,]2 [G,B,E]2 [G,B,E]2 | [B,,,B,,]2 [F,A,B,D]2 [F,A,B,D]2 | %85
 [E,G,B,E] z [E,G,B,E]2 || z2 | [A,,A,]2 [E,,E,]2 [C,,C,]2 | [F,,F,]2 [=D,=D]2 [B,,B,]2 | %89
 [G,,G,] z [E,G,B,E]4 ||[K:A] [A,,,A,,] z [E,A,C]2 [E,A,C]2 | [A,,,A,,] z [E,A,C]2 [E,A,C]2 | %92
 [A,,,A,,] z [E,A,C]2 |: [E,A,C]2 [A,,,A,,]2 | [C,E,A,]2 [D,F,G,]2 | %95
 [A,,,A,,]2 [C,E,A,]2 [C,E,A,]2 | E,,2 [B,,D,E,G,]2 [B,,D,E,G,]2 | [A,,,A,,]2 [C,E,A,]2 [C,E,A,]2 | %98
 [A,,,A,,]2 [C,E,A,]2 [D,E,G,]2 | [A,,,A,,]2 [C,E,A,]2 [C,E,A,]2 | E,,2 [B,,D,E,G,]2 [B,,D,E,G,]2 | %101
 [A,,,A,,] z [C,E,A,]2 :: z2 | E,,2 [B,,D,E,G,]2 [B,,D,E,G,]2 | A,,2 [C,E,A,]2 [C,E,A,]2 | %105
 [D,,D,]2 [D,F,A,]2 [D,F,A,]2 | [A,,,A,,]2 [C,E,A,]2 [C,E,G,]2 | [D,,D,]2 [D,F,B,]2 [D,F,B,]2 | %108
 E,,2 [C,E,A,]2 [C,E,A,]2 | E,,2 [B,,D,E,G,]2 [B,,D,E,G,]2 |1 [A,,,A,,] z [A,,C,E,A,]2 :|2 %111
 [A,,C,E,A,]2 z2 z2 |: [E,,E,]2 [G,B,E]2 [G,B,E]2 | [E,,E,]2 [G,B,E]2 [G,B,E]2 | %114
 [B,,,B,,]2 [F,A,B,D]2 [F,A,B,D]2 | [E,,E,]2 [G,B,E]2 [G,B,E]2 | [E,,E,]2 [G,B,E]2 [G,B,E]2 | %117
 [E,,E,]2 [G,B,E]2 [G,B,E]2 | [B,,,B,,]2 [F,A,B,D]2 [F,A,B,D]2 |1 [E,,E,] z [E,G,B,D]2 z2 :|2 %120
 [E,,G,,B,,E,]2 !fermata!z2 E,E, |: E,2 E,E, E,2 | G,2 G,G, G,2 | [B,,B,]2 [E,E]2 [G,G]2 | %124
[I:staff -1] B[I:staff +1] z !>![E,G,B,]4 | [B,,,B,,]2 [F,A,B,D]2 [F,A,B,D]2 | %126
 [E,,E,]2 [G,B,E]2 [G,B,E]2 | [B,,,B,,]2 [F,A,B,D]2 [F,A,B,D]2 |1 [E,,E,]2 [B,,B,]2 [G,,G,]2 :|2 %129
 [E,G,B,E]2 z |: z z2 | [B,,,B,,]2 [F,A,B,E]2 [F,A,B,E]2 | [E,,E,]2 [G,B,E]2 [G,B,E]2 | %133
 [B,,,B,,]2 [F,A,B,E]2 [F,A,B,E]2 | [E,,E,]2 [G,B,E]2 [G,B,E]2 | [B,,,B,,]2 [F,A,B,E]2 [F,A,B,E]2 | %136
 [E,,E,]2 [G,B,E]2 [G,B,E]2 | [B,,,B,,]2 [F,A,B,E]2 [F,A,B,E]2 | [E,G,B,E]2 z :| z [E,,E,][E,,E,] | %140
 [E,,E,]2 [G,,G,]2 [B,,B,]2 | [E,,E,]4 z2 | [E,,E,]4 z2 | !fermata![E,,E,]6 |] %144
V:3
 x2 | x6 | x6 | x6 | x6 | x6 | x6 | x6 | x6 | x6 | x6 | x6 | x6 | x6 | x6 | x6 | x6 | x6 | x6 | %19
 x6 | x6 | x6 | x6 || x6 | x6 | x6 |: x6 | x6 | x6 | x6 | x6 | x6 | x6 |1 x6 :|2 x6 |: x6 | x6 | %37
 x6 | x6 | x6 | x6 | x6 |1 x6 :|2 x6 || x6 | x6 | x6 | x6 | x6 | x6 | x6 | x4 || x2 | x6 | x6 | %55
 x6 | x6 | x6 | x6 |: x6 | x6 | x6 | x6 | x6 | x6 | x6 |1 x6 :|2 x6 |: x6 | x6 | x6 | x6 | x6 | %73
 x6 |1 x6 | x6 :|2 x6 | x6 || x6 | x6 | x6 | x6 | x6 | x6 | x6 | x4 || x2 | x6 | x6 | x6 || %90
[K:A] x6 | x6 | x4 |: x4 | x4 | x6 | x6 | x6 | x6 | x6 | x6 | x4 :: x2 | x6 | x6 | x6 | x6 | x6 | %108
 x6 | x6 |1 x4 :|2 x6 |: x6 | x6 | x6 | x6 | x6 | x6 | x6 |1 x6 :|2 x6 |: x6 | x6 | x6 | B, x5 | %125
 x6 | x6 | x6 |1 x6 :|2 x3 |: x3 | x6 | x6 | x6 | x6 | x6 | x6 | x6 | x3 :| x3 | x6 | x6 | x6 | %143
 x6 |] %144

